symbolia-yaru/scalable/status/new.svg

<?xml version="1.0" encoding="UTF-8" standalone="no"?>
<svg
   height="24"
   viewBox="0 0 24 24"
   width="24"
   version="1.1"
   id="svg4"
   sodipodi:docname="new.svg"
   inkscape:version="1.1 (c68e22c387, 2021-05-23)"
   xmlns:inkscape="http://www.inkscape.org/namespaces/inkscape"
   xmlns:sodipodi="http://sodipodi.sourceforge.net/DTD/sodipodi-0.dtd"
   xmlns="http://www.w3.org/2000/svg"
   xmlns:svg="http://www.w3.org/2000/svg">
  <defs
     id="defs8" />
  <sodipodi:namedview
     id="namedview6"
     pagecolor="#ffffff"
     bordercolor="#666666"
     borderopacity="1.0"
     inkscape:pageshadow="2"
     inkscape:pageopacity="0.0"
     inkscape:pagecheckerboard="0"
     showgrid="false"
     inkscape:zoom="33.541667"
     inkscape:cx="12.014907"
     inkscape:cy="12.014907"
     inkscape:window-width="1920"
     inkscape:window-height="1016"
     inkscape:window-x="0"
     inkscape:window-y="0"
     inkscape:window-maximized="1"
     inkscape:current-layer="svg4" />
  <path fill="#484848"
     id="path2"
     d="M 14.953125 1.7890625 C 14.834687 1.7935937 14.714609 1.8191406 14.599609 1.8691406 L 12 3 L 9.4101562 1.890625 C 8.9501562 1.690625 8.4101562 1.8707813 8.1601562 2.3007812 L 6.7109375 4.7207031 L 3.9609375 5.3398438 C 3.4709375 5.4498438 3.1296875 5.9001563 3.1796875 6.4101562 L 3.4394531 9.2109375 L 1.5800781 11.339844 C 1.2500781 11.719844 1.2500781 12.280156 1.5800781 12.660156 L 3.4394531 14.779297 L 3.1796875 17.599609 C 3.1296875 18.099609 3.4692188 18.559922 3.9492188 18.669922 L 6.7109375 19.300781 L 8.1503906 21.720703 C 8.4103906 22.150703 8.9401563 22.330859 9.4101562 22.130859 L 12 21 L 14.589844 22.109375 C 15.049844 22.309375 15.589844 22.129219 15.839844 21.699219 L 17.279297 19.269531 L 20.039062 18.640625 C 20.529062 18.530625 20.860547 18.070312 20.810547 17.570312 L 20.550781 14.759766 L 22.410156 12.640625 C 22.750156 12.280625 22.749922 11.719844 22.419922 11.339844 L 20.560547 9.2207031 L 20.820312 6.4101562 C 20.870313 5.9101562 20.530781 5.4498438 20.050781 5.3398438 L 17.289062 4.7109375 L 15.849609 2.2792969 C 15.654609 1.9567969 15.308438 1.7754688 14.953125 1.7890625 z M 12 7 C 12.55 7 13 7.45 13 8 L 13 12 C 13 12.55 12.55 13 12 13 C 11.45 13 11 12.55 11 12 L 11 8 C 11 7.45 11.45 7 12 7 z M 12 15 A 1 1 0 0 1 13 16 A 1 1 0 0 1 12 17 A 1 1 0 0 1 11 16 A 1 1 0 0 1 12 15 z " />
</svg>

<svg xmlns="http://www.w3.org/2000/svg" height="24" viewBox="0 0 24 24" width="24"><path fill="#484848" d="M22.42 11.34l-1.86-2.12.26-2.81c.05-.5-.29-.96-.77-1.07l-2.76-.63-1.44-2.43c-.26-.43-.79-.61-1.25-.41L12 3 9.41 1.89c-.46-.2-1-.02-1.25.41L6.71 4.72l-2.75.62c-.49.11-.83.56-.78 1.07l.26 2.8-1.86 2.13c-.33.38-.33.94 0 1.32l1.86 2.12-.26 2.82c-.05.5.29.96.77 1.07l2.76.63 1.44 2.42c.26.43.79.61 1.26.41L12 21l2.59 1.11c.46.2 1 .02 1.25-.41l1.44-2.43 2.76-.63c.49-.11.82-.57.77-1.07l-.26-2.81 1.86-2.12c.34-.36.34-.92.01-1.3zM13 17h-2v-2h2v2zm-1-4c-.55 0-1-.45-1-1V8c0-.55.45-1 1-1s1 .45 1 1v4c0 .55-.45 1-1 1z"/></svg>
